X:1
T:171 - Avivamento
T:Letra: Albert Midlane (1825-1909)
T:Adapt. Fanny Jane Crosby (1820-1915)
T:Trad.: Salomão Luiz Ginsburg (1867-1927)
T:Música: William Howard Doane (1832-1915)
M:4/4
L:1/8
Q:1/4=115
K:G 
V:1
(GA) | "G"B2 (AG) "C"E2 "D7"F2| "G"G6 G2| "D"A3A A2 "(G)"B2| "D"A6 (GA) | "G"B2 (AG) "C"E2 (EF) | G2 (FE) "G"D2 G2| "D7"A3G "(G/D)"B2 "(D7)"A2| "G"G4z2 || (Bc) | "G"d3e d2 B2| G6 (Bc) | d3e d2 B2| "D"A4z2 (GA)| "G"B2 (AG) "C"E2 (EF)| G2 (FE) "G"D2 G2| "D7"A3G "(G/D)"B2 "(D7)"A2| "G"G4z2 |] 
w: 1.~A_vi-va_nos, Se-nhor! Oh, dá-nos teu po-der! De_ san-ti_da-de,_ fé ea_mor Re-ves-teo nos-so ser!     A_vi-va-nos, Se-nhor!    Eis_ nos-sa pe-ti-ção.                A_tei-ao_ fo-go do al-to_ céu    Em ca-da co-ra-ção!
w: 2.~Des_per-ta_nos, Se-nhor! Oh, fa-ze-nos fru-ir As_ ri-cas_ bên-çãos_ di-vi_nais, Pri-mí-cias do por-vir!
w: 3.~Re_no-va_nos, Se-nhor, Ins-pi-ra mais a-mor, Mais_ ze-lo,_ gra-çae ab-ne-ga_ção, A bem do pe-ca-dor!
W: 
W:
W: 1. Aviva-nos, Senhor!
W: Oh, dá-nos teu poder!
W: De santidade, fé e amor
W: Reveste o nosso ser!
W: 
W:    (Estribilho)
W:    Aviva-nos, Senhor!
W:    Eis nossa petição.            
W:    Ateia o fogo do alto céu
W:    Em cada coração!
W: 
W:
W:
W: 2. Desperta-nos, Senhor!
W: Oh, faze-nos fruir
W: As ricas bênçãos divinais,
W: Primícias do porvir!
W: 
W: 3. Renova-nos, Senhor,
W: Inspira mais amor,
W: Mais zelo, graça e abnegação,
W: A bem do pecador!
W:         
W: 





